packages/icons/svg/Fill/link-2.svg

<svg fill="none" height="24" viewBox="0 0 24 24" width="24" xmlns="http://www.w3.org/2000/svg"><path clip-rule="evenodd" d="m11.5271 3.89973c2.182-2.187 5.703-2.582 8.135-.68 2.913 2.278 3.104 6.523.573 9.05997l-1.423 1.425c-.393.394-1.029.394-1.422 0-.393-.393-.393-1.032 0-1.425l1.422-1.426c1.655-1.65697 1.565-4.41197-.272-5.94997-1.627-1.363-4.069-1.103-5.568.399l-1.273 1.275c-.392.394-1.03.394-1.422 0-.39296-.393-.39696-1.028.177-1.603zm1.7659 5.39323-3.99996 4.00004c-.391.391-.391 1.023 0 1.414.195.195.451.293.70696.293.256 0 .512-.098.707-.293l4-4c.391-.391.391-1.02304 0-1.41404s-1.023-.391-1.414 0zm-1.0127 8.10364-1.274 1.271c-1.50097 1.497-3.94797 1.755-5.57597.398-1.839-1.532-1.93-4.278-.273-5.931l1.425-1.42c.393-.392.393-1.028 0-1.421-.393-.39101-1.031-.39101-1.425 0l-1.275 1.273c-2.172 2.166-2.553 5.65-.675 8.074 2.271 2.933 6.531 3.131 9.07297.597l1.425-1.42c.393-.393.393-1.028 0-1.421-.394-.393-1.031-.393-1.425 0z" fill="#6b7280" fill-rule="evenodd"/></svg>

<svg width="24" height="24" viewBox="0 0 24 24" fill="none" xmlns="http://www.w3.org/2000/svg">
<g id="Icon/Fill/link-2">
<path id="Mask" fill-rule="evenodd" clip-rule="evenodd" d="M11.527 3.8997C13.709 1.7127 17.23 1.3177 19.662 3.2197C22.575 5.4977 22.766 9.7427 20.235 12.2797L18.812 13.7047C18.419 14.0987 17.783 14.0987 17.39 13.7047C16.997 13.3117 16.997 12.6727 17.39 12.2797L18.812 10.8537C20.467 9.1967 20.377 6.4417 18.54 4.9037C16.913 3.5407 14.471 3.8007 12.972 5.3027L11.699 6.5777C11.307 6.9717 10.669 6.9717 10.277 6.5777C9.88398 6.1847 9.87998 5.5497 10.454 4.9747L11.527 3.8997ZM13.2929 9.293L9.29288 13.293C8.90188 13.684 8.90188 14.316 9.29288 14.707C9.48788 14.902 9.74388 15 9.99988 15C10.2559 15 10.5119 14.902 10.7069 14.707L14.7069 10.707C15.0979 10.316 15.0979 9.684 14.7069 9.293C14.3159 8.902 13.6839 8.902 13.2929 9.293ZM12.2802 17.3965L11.0062 18.6675C9.50518 20.1645 7.05818 20.4225 5.43018 19.0655C3.59118 17.5335 3.50018 14.7875 5.15718 13.1345L6.58218 11.7145C6.97518 11.3225 6.97518 10.6865 6.58218 10.2935C6.18918 9.9025 5.55118 9.9025 5.15718 10.2935L3.88218 11.5665C1.71018 13.7325 1.32918 17.2165 3.20718 19.6405C5.47818 22.5735 9.73818 22.7715 12.2802 20.2375L13.7052 18.8175C14.0982 18.4245 14.0982 17.7895 13.7052 17.3965C13.3112 17.0035 12.6742 17.0035 12.2802 17.3965Z" fill="#000000"/>
</g>
</svg>
